X:736
T:Christ Child's Lullaby
S:Derek Hoy
Z:Nigel Gatherer
M:3/4
L:1/4
Q:100
K:AMix
E | A2 B | c2 d | e2 d | A3   | c>B A | B2 e | d2  B | G3 |
    A2 B | c2 d | e2 d | A2 B | A2  E | G2 A | B<A-A | A3 |] 
<end>
<start>
